app/icons/svg/008-firefighter helmet.svg

<svg id="Capa_1" enable-background="new 0 0 512 512" height="512" viewBox="0 0 512 512" width="512" xmlns="http://www.w3.org/2000/svg"><g><g><path d="m60.236 512c-8.284 0-15-6.71-15-14.987v-82.784c0-8.277 6.716-14.987 15-14.987s15 6.71 15 14.987v82.784c0 8.277-6.715 14.987-15 14.987z" fill="#ded7f9"/><path d="m451.764 512c-8.284 0-15-6.71-15-14.987v-82.784c0-8.277 6.716-14.987 15-14.987s15 6.71 15 14.987v82.784c0 8.277-6.716 14.987-15 14.987z" fill="#c7bdb8"/></g><g><g><g><g><path d="m306.18 53.815v-38.828c0-8.277-6.716-14.987-15-14.987h-70.36c-8.284 0-15 6.71-15 14.987v38.828c-90.989 22.448-158.462 104.532-158.462 202.374v125.667h417.285v-125.667c-.001-97.842-67.474-179.926-158.463-202.374z" fill="#e06c6c"/><path d="m306.18 53.815v-38.828c0-8.277-6.716-14.987-15-14.987h-35.18v381.856h208.642v-125.667c0-97.842-67.473-179.926-158.462-202.374z" fill="#c63c50"/></g><g><g fill="#942a3a"><path d="m391 408.719c-8.284 0-15-6.71-15-14.987v-127.628c0-8.277 6.716-14.987 15-14.987s15 6.71 15 14.987v127.628c0 8.277-6.716 14.987-15 14.987z"/><path d="m331 408.719c-8.284 0-15-6.71-15-14.987v-84.008c0-8.277 6.716-14.987 15-14.987s15 6.71 15 14.987v84.008c0 8.277-6.716 14.987-15 14.987z"/></g><g fill="#c63c50"><path d="m180 408.719c-8.284 0-15-6.71-15-14.987v-84.008c0-8.277 6.716-14.987 15-14.987s15 6.71 15 14.987v84.008c0 8.277-6.716 14.987-15 14.987z"/><path d="m120 408.719c-8.284 0-15-6.71-15-14.987v-127.628c0-8.277 6.716-14.987 15-14.987s15 6.71 15 14.987v127.628c0 8.277-6.716 14.987-15 14.987z"/></g></g></g><g><path d="m288.529 127.828h-64.016c0 18.021-14.622 32.63-32.659 32.63v40.466c0 40.629 24.657 75.504 59.835 90.504 2.747 1.171 5.873 1.171 8.62 0 35.179-14.999 59.835-49.875 59.835-90.504v-41.508c-17.46 0-31.615-14.142-31.615-31.588z" fill="#f3d652"/><path d="m288.529 127.828h-32.529v164.478c1.468 0 2.936-.293 4.31-.878 35.179-14.999 59.835-49.875 59.835-90.504v-41.508c-17.461 0-31.616-14.142-31.616-31.588z" fill="#e9bc3e"/></g></g><g><path d="m497 424.999h-482c-8.284 0-15-6.716-15-15v-38.026c0-8.284 6.716-15 15-15h482c8.284 0 15 6.716 15 15v38.026c0 8.284-6.716 15-15 15z" fill="#942a3a"/><path d="m497 356.973h-241v68.025h241c8.284 0 15-6.71 15-14.987v-38.051c0-8.277-6.716-14.987-15-14.987z" fill="#821f31"/></g></g></g></svg>

<?xml version="1.0" encoding="utf-8"?>
<!-- Generator: Adobe Illustrator 25.2.1, SVG Export Plug-In . SVG Version: 6.00 Build 0)  -->
<svg version="1.1" id="Capa_1" xmlns="http://www.w3.org/2000/svg" xmlns:xlink="http://www.w3.org/1999/xlink" x="0px" y="0px"
	 viewBox="0 0 512 512" style="enable-background:new 0 0 512 512;" xml:space="preserve">
<style type="text/css">
	.st0{fill:#77716F;}
	.st1{fill:#58A3FE;}
	.st2{fill:#004FAC;}
	.st3{fill:#1B46A8;}
	.st4{fill:#4B87DD;}
	.st5{fill:#F3D652;}
	.st6{fill:#E9BC3E;}
	.st7{fill:#0B2A7F;}
</style>
<path class="st0" d="M60.2,512c-8.3,0-15-6.7-15-15v-82.8c0-8.3,6.7-15,15-15s15,6.7,15,15V497C75.2,505.3,68.5,512,60.2,512z"/>
<path class="st0" d="M451.8,512c-8.3,0-15-6.7-15-15v-82.8c0-8.3,6.7-15,15-15s15,6.7,15,15V497C466.8,505.3,460,512,451.8,512z"/>
<path class="st1" d="M306.2,53.8V15c0-8.3-6.7-15-15-15h-70.4c-8.3,0-15,6.7-15,15v38.8c-91,22.4-158.5,104.5-158.5,202.4v125.7
	h417.3V256.2C464.6,158.3,397.2,76.3,306.2,53.8z"/>
<path class="st2" d="M306.2,53.8V15c0-8.3-6.7-15-15-15H256v381.9h208.6V256.2C464.6,158.3,397.2,76.3,306.2,53.8z"/>
<g>
	<g>
		<path class="st3" d="M391,408.7c-8.3,0-15-6.7-15-15V266.1c0-8.3,6.7-15,15-15s15,6.7,15,15v127.6C406,402,399.3,408.7,391,408.7z
			"/>
		<path class="st3" d="M331,408.7c-8.3,0-15-6.7-15-15v-84c0-8.3,6.7-15,15-15s15,6.7,15,15v84C346,402,339.3,408.7,331,408.7z"/>
	</g>
	<g>
		<path class="st4" d="M180,408.7c-8.3,0-15-6.7-15-15v-84c0-8.3,6.7-15,15-15s15,6.7,15,15v84C195,402,188.3,408.7,180,408.7z"/>
		<path class="st4" d="M120,408.7c-8.3,0-15-6.7-15-15V266.1c0-8.3,6.7-15,15-15s15,6.7,15,15v127.6C135,402,128.3,408.7,120,408.7z
			"/>
	</g>
</g>
<path class="st5" d="M288.5,127.8h-64c0,18-14.6,32.6-32.7,32.6v40.5c0,40.6,24.7,75.5,59.8,90.5c2.7,1.2,5.9,1.2,8.6,0
	c35.2-15,59.8-49.9,59.8-90.5v-41.5C302.7,159.4,288.5,145.3,288.5,127.8L288.5,127.8z"/>
<path class="st6" d="M288.5,127.8H256v164.5c1.5,0,2.9-0.3,4.3-0.9c35.2-15,59.8-49.9,59.8-90.5v-41.5
	C302.7,159.4,288.5,145.3,288.5,127.8L288.5,127.8z"/>
<path class="st2" d="M497,425H15c-8.3,0-15-6.7-15-15v-38c0-8.3,6.7-15,15-15h482c8.3,0,15,6.7,15,15v38
	C512,418.3,505.3,425,497,425z"/>
<path class="st7" d="M497,357H256v68h241c8.3,0,15-6.7,15-15V372C512,363.7,505.3,357,497,357z"/>
<g id="E1zdPQ_1_">
	
		<image style="overflow:visible;" width="512" height="512" id="E1zdPQ" xlink:href="3B60F8E646578A38.jpg"  transform="matrix(1 0 0 1 85 -550)">
	</image>
</g>
</svg>
